src/assets/outline/TickCircle.svg

<svg width="24" height="24" viewBox="0 0 24 24"  xmlns="http://www.w3.org/2000/svg">
<path d="M12 22.75C6.07 22.75 1.25 17.93 1.25 12C1.25 6.07 6.07 1.25 12 1.25C17.93 1.25 22.75 6.07 22.75 12C22.75 17.93 17.93 22.75 12 22.75ZM12 2.75C6.9 2.75 2.75 6.9 2.75 12C2.75 17.1 6.9 21.25 12 21.25C17.1 21.25 21.25 17.1 21.25 12C21.25 6.9 17.1 2.75 12 2.75Z" />
<path d="M10.5799 15.5796C10.3799 15.5796 10.1899 15.4996 10.0499 15.3596L7.21994 12.5296C6.92994 12.2396 6.92994 11.7596 7.21994 11.4696C7.50994 11.1796 7.98994 11.1796 8.27994 11.4696L10.5799 13.7696L15.7199 8.62961C16.0099 8.33961 16.4899 8.33961 16.7799 8.62961C17.0699 8.91961 17.0699 9.39961 16.7799 9.68961L11.1099 15.3596C10.9699 15.4996 10.7799 15.5796 10.5799 15.5796Z" />
</svg>

<?xml version="1.0" encoding="UTF-8"?>
<svg width="24" height="24" viewBox="0 0 24 24" xmlns="http://www.w3.org/2000/svg">
 <path d="m12 22.75c-5.93 0-10.75-4.82-10.75-10.75s4.82-10.75 10.75-10.75 10.75 4.82 10.75 10.75-4.82 10.75-10.75 10.75zm0-20c-5.1 0-9.25 4.15-9.25 9.25s4.15 9.25 9.25 9.25 9.25-4.15 9.25-9.25-4.15-9.25-9.25-9.25z"/>
 <path d="m10.58 15.58c-0.2 0-0.39-0.08-0.53-0.22l-2.83-2.83c-0.29-0.29-0.29-0.77 0-1.06s0.77-0.29 1.06 0l2.3 2.3 5.14-5.14c0.29-0.29 0.77-0.29 1.06 0s0.29 0.77 0 1.06l-5.67 5.67c-0.14 0.14-0.33 0.22-0.53 0.22z"/>
</svg>
